src/asset/24px/send.svg

<svg width="24" height="24" viewBox="0 0 24 24" fill="none" xmlns="http://www.w3.org/2000/svg">
<path fill-rule="evenodd" clip-rule="evenodd" d="M14.5974 2.08464C14.9604 1.92496 15.3835 1.99487 15.6758 2.26285L21.6758 7.76313C21.8824 7.95254 22 8.21998 22 8.50029C22 8.7806 21.8824 9.04803 21.6757 9.23743L15.6757 14.7372C15.3834 15.0051 14.9604 15.075 14.5974 14.9153C14.2344 14.7556 14 14.3966 14 14V12.0852C11.7653 12.4641 9.69498 14.0774 8.94872 16.3162C8.81007 16.7322 8.41665 17.0093 7.97832 16.9998C7.53998 16.9902 7.15897 16.6963 7.03851 16.2747C5.93865 12.4253 7.03623 9.54954 8.9179 7.66788C10.4117 6.17407 12.372 5.33283 14 5.08117V2.99999C14 2.60342 14.2344 2.24432 14.5974 2.08464ZM16 5.2733V5.99999C16 6.55227 15.5523 6.99999 15 6.99999C13.7598 6.99999 11.7658 7.64844 10.3321 9.0821C9.40919 10.005 8.69823 11.2718 8.60938 12.9655C10.2154 11.1133 12.6053 9.99999 15 9.99999C15.5523 9.99999 16 10.4477 16 11V11.7268L19.5201 8.50023L16 5.2733Z" fill="currentColor"/>
<path fill-rule="evenodd" clip-rule="evenodd" d="M3 5.99999C3 4.34314 4.34315 2.99999 6 2.99999H7C7.55228 2.99999 8 3.44771 8 3.99999C8 4.55227 7.55228 4.99999 7 4.99999H6C5.44772 4.99999 5 5.44771 5 5.99999V18C5 18.5523 5.44772 19 6 19H18C18.5523 19 19 18.5523 19 18V17C19 16.4477 19.4477 16 20 16C20.5523 16 21 16.4477 21 17V18C21 19.6568 19.6569 21 18 21H6C4.34315 21 3 19.6568 3 18V5.99999Z" fill="currentColor"/>
</svg>

<svg width="24" height="24" fill="none" xmlns="http://www.w3.org/2000/svg"><path fill-rule="evenodd" clip-rule="evenodd" d="M14.597 2.085a1 1 0 011.079.178l6 5.5a1 1 0 010 1.474l-6 5.5A1 1 0 0114 14v-1.915c-2.235.38-4.305 1.992-5.051 4.231a1 1 0 01-1.91-.041c-1.1-3.85-.003-6.725 1.879-8.607C10.412 6.174 12.372 5.333 14 5.08V3a1 1 0 01.597-.915zM16 5.273V6a1 1 0 01-1 1c-1.24 0-3.234.648-4.668 2.082a5.776 5.776 0 00-1.723 3.883C10.215 11.114 12.605 10 15 10a1 1 0 011 1v.727L19.52 8.5 16 5.273z" fill="currentColor"/><path fill-rule="evenodd" clip-rule="evenodd" d="M3 6a3 3 0 013-3h1a1 1 0 010 2H6a1 1 0 00-1 1v12a1 1 0 001 1h12a1 1 0 001-1v-1a1 1 0 112 0v1a3 3 0 01-3 3H6a3 3 0 01-3-3V6z" fill="currentColor"/></svg>
